clinic/img/icons/main_page/doctor.svg

<svg width="80" height="80" viewBox="0 0 80 80" fill="none" xmlns="http://www.w3.org/2000/svg">
<g clip-path="url(#clip0)">
<path d="M45.5661 56.3228L54.0638 48.3414L50.69 47.7147C49.0616 47.3875 47.8902 45.4984 47.8902 43.8375V36.4359H40H32.1101V43.8375C32.1101 45.4984 30.9385 47.3873 29.3102 47.7147L25.9365 48.3414L34.4341 56.3228C37.5629 59.2617 42.4372 59.2617 45.5661 56.3228Z" fill="#FFE7CF"/>
<path d="M44.0684 36.4359V47.659C44.0684 49.32 45.24 51.2089 46.8683 51.5362L49.7759 52.3686L54.0636 48.3414L50.6898 47.7147C49.0614 47.3875 47.89 45.4984 47.89 43.8375V36.4359H44.0684Z" fill="#F4D5BA"/>
<path d="M49.8502 47.3087L40 54.6709L30.1498 47.3085C29.6217 46.9138 28.9375 46.7932 28.3063 46.9837L11.7578 51.9768C9.97734 52.514 8.65406 54.0123 8.34094 55.8456L4.695 77.19C4.44406 78.6589 5.57563 80 7.06563 80H72.9344C74.4245 80 75.5559 78.6589 75.305 77.19L71.6592 55.8456C71.3461 54.0123 70.0228 52.514 68.2423 51.9768L51.6939 46.9837C51.0625 46.7934 50.3783 46.9139 49.8502 47.3087Z" fill="#24D9DE"/>
<path d="M28.3063 46.984L25.4594 47.8429L31.7424 56.6348C32.2369 57.3268 33.1458 57.5826 33.9288 57.2501L40 54.6712L30.1499 47.3088C29.6218 46.914 28.9375 46.7935 28.3063 46.984Z" fill="#D0D1D2"/>
<path d="M46.0712 57.2499C46.8542 57.5826 47.7631 57.3268 48.2577 56.6346L54.5406 47.8427L54.5255 47.8382L51.6938 46.9838C51.0625 46.7933 50.3783 46.914 49.8502 47.3087L40 54.6708L46.0712 57.2499Z" fill="#D0D1D2"/>
<path d="M40 54.6709L35.2256 56.6992L38.0167 59.9437H41.9833L44.7744 56.6992L40 54.6709Z" fill="#F9644B"/>
<path d="M41.9833 59.9435H40H38.0167L34.3538 79.9999H45.6463L41.9833 59.9435Z" fill="#F9644B"/>
<path d="M40 76.2764C40 76.2764 28.9375 46.7934 28.3063 46.9839L11.7578 51.9768C9.97734 52.514 8.65406 54.0123 8.34094 55.8456L4.695 77.1899C4.44406 78.6588 5.57563 79.9999 7.06563 79.9999H72.9344C74.4245 79.9999 75.5559 78.6588 75.305 77.1899L71.6592 55.8456C71.3461 54.0123 70.0228 52.514 68.2423 51.9768L51.6939 46.9837C51.0625 46.7934 40 76.2764 40 76.2764Z" fill="#E1EFFB"/>
<path d="M75.305 77.1899L71.6591 55.8456C71.3459 54.0123 70.0226 52.5142 68.2422 51.9768L51.6937 46.9837C51.5222 46.932 50.5797 49.0731 49.2983 52.2184L61.3002 55.8396C62.2073 56.1134 62.8816 56.8767 63.0411 57.8107L66.8312 79.9999H72.9342C74.4244 79.9999 75.5559 78.6587 75.305 77.1899Z" fill="#CADDEA"/>
<path d="M57.5916 63.3305C56.9251 63.3305 56.3847 62.7902 56.3847 62.1236V48.4252C56.3847 43.8471 52.806 40.0919 48.2375 39.8761C47.5718 39.8447 47.0575 39.2796 47.089 38.6138C47.1204 37.948 47.6858 37.4343 48.3513 37.4652C54.2096 37.7418 58.7983 42.5558 58.7983 48.425V62.1235C58.7983 62.7902 58.258 63.3305 57.5916 63.3305Z" fill="#44798C"/>
<path d="M22.4085 54.3992C21.7419 54.3992 21.2016 53.8589 21.2016 53.1923V48.4248C21.2016 42.5718 25.7772 37.7583 31.6185 37.4664C32.286 37.4317 32.8508 37.9458 32.8841 38.6114C32.9174 39.277 32.4047 39.8437 31.7391 39.8768C27.1838 40.1045 23.6153 43.8592 23.6153 48.4248V53.1923C23.6153 53.859 23.075 54.3992 22.4085 54.3992Z" fill="#44798C"/>
<path d="M57.5781 67.9548C60.3603 67.9548 62.6156 65.6994 62.6156 62.9173C62.6156 60.1351 60.3603 57.8798 57.5781 57.8798C54.796 57.8798 52.5406 60.1351 52.5406 62.9173C52.5406 65.6994 54.796 67.9548 57.5781 67.9548Z" fill="#1785B8"/>
<path d="M57.5781 65.1365C58.8039 65.1365 59.7975 64.1429 59.7975 62.9171C59.7975 61.6914 58.8039 60.6978 57.5781 60.6978C56.3524 60.6978 55.3588 61.6914 55.3588 62.9171C55.3588 64.1429 56.3524 65.1365 57.5781 65.1365Z" fill="#E1EFFB"/>
<path d="M26.3997 72.8032H24.895C24.2284 72.8032 23.6881 72.2629 23.6881 71.5963C23.6881 70.9297 24.2284 70.3894 24.895 70.3894H26.3997C26.5814 70.3894 26.7564 70.3129 26.8797 70.1796C27.003 70.0461 27.0658 69.8658 27.0517 69.6849L26.1724 58.4018C26.1411 58.0018 26.0461 57.6118 25.8899 57.243C25.3327 55.9277 24.0119 55.0818 22.52 55.0818C22.5108 55.0818 22.5016 55.0818 22.4922 55.0819L22.2934 55.0833C20.7583 55.0941 19.3856 56.0288 18.8774 57.4091C18.76 57.728 18.687 58.0621 18.6605 58.4018L17.7814 69.6847C17.7672 69.866 17.8299 70.0461 17.9531 70.1794C18.0766 70.313 18.2516 70.3894 18.4331 70.3894H19.9378C20.6044 70.3894 21.1447 70.9297 21.1447 71.5963C21.1447 72.2629 20.6044 72.8032 19.9378 72.8032H18.4331C17.5808 72.8032 16.76 72.4443 16.1814 71.8186C15.6027 71.1932 15.3086 70.3471 15.375 69.4971L16.2541 58.2143C16.2978 57.6535 16.4183 57.1021 16.6124 56.5754C17.466 54.2572 19.742 52.6877 22.2764 52.6699L22.4752 52.6685C22.4902 52.6685 22.5052 52.6683 22.5202 52.6683C24.9839 52.6683 27.1756 54.0907 28.1122 56.3016C28.3703 56.9105 28.5272 57.5541 28.5788 58.2144L29.458 69.4974C29.5242 70.3469 29.2303 71.193 28.6514 71.8188C28.0728 72.4444 27.252 72.8032 26.3997 72.8032Z" fill="#2C5871"/>
<path d="M26.0756 25.5478V21.0323H23.3213C22.0114 21.0323 20.9497 22.0941 20.9497 23.4039V25.2381C20.9497 26.548 22.0114 27.6097 23.3213 27.6097H26.0756V25.5478Z" fill="#F4D5BA"/>
<path d="M56.6788 21.0325H53.9244V25.5479V27.6098H56.6788C57.9886 27.6098 59.0503 26.5481 59.0503 25.2382V23.404C59.0503 22.0943 57.9886 21.0325 56.6788 21.0325Z" fill="#F4D5BA"/>
<path d="M50.1252 5.65313C47.7497 3.60781 44.4106 3.74063 40 3.69141C35.5894 3.74063 32.2503 3.60766 29.8749 5.65297C26.8452 8.26172 25.2036 12.1359 25.2036 16.1342V27.7563C25.2036 31.7545 30.2288 42.3597 39.9999 42.3597C49.7709 42.3597 54.7961 31.7545 54.7961 27.7563V16.1344C54.7963 12.1361 53.1549 8.26188 50.1252 5.65313Z" fill="#FFE7CF"/>
<path d="M50.1252 5.65317C49.1817 4.84083 48.0855 4.37286 46.8311 4.09973C46.8311 4.10567 46.8313 4.11098 46.8313 4.11708V27.7565C46.8313 31.1696 43.1683 39.3964 36.0175 41.7313C37.2431 42.1314 38.5703 42.3599 40 42.3599C49.7711 42.3599 54.7963 31.7547 54.7963 27.7565V16.1344C54.7963 12.1361 53.1549 8.26192 50.1252 5.65317Z" fill="#F4D5BA"/>
<path d="M48.9014 0H40H31.0986C26.5178 0 22.8044 3.71344 22.8044 8.29422V21.9103C22.8044 21.9103 25.0883 21.8586 26.5559 23.3111C26.8616 23.6136 27.3809 23.3925 27.3809 22.9625V11.8214C27.3809 9.79672 29.0224 8.15531 31.047 8.15531H34.3783C35.252 8.15531 36.0988 8.45734 36.7752 9.01031L37.1019 9.2775C37.9197 9.94609 38.9434 10.3112 39.9999 10.3112C41.0561 10.3112 42.08 9.94594 42.8978 9.2775L43.2245 9.01031C43.9009 8.45734 44.7478 8.15531 45.6214 8.15531H48.9527C50.9774 8.15531 52.6188 9.79672 52.6188 11.8214V22.9627C52.6188 23.3927 53.1381 23.6138 53.4438 23.3113C54.9114 21.8587 57.1953 21.9105 57.1953 21.9105V8.29422C57.1955 3.71344 53.482 0 48.9014 0Z" fill="#FFB125"/>
<path d="M48.9014 0H40.9364C45.4744 0 49.1589 3.64484 49.2273 8.16656C51.1237 8.30703 52.6189 9.88906 52.6189 11.8214V22.9627C52.6189 23.3927 53.1383 23.6138 53.4439 23.3113C54.9116 21.8587 57.1955 21.9105 57.1955 21.9105V8.29422C57.1955 3.71344 53.482 0 48.9014 0Z" fill="#FF901D"/>
</g>
<defs>
<clipPath id="clip0">
<rect width="80" height="80" fill="white"/>
</clipPath>
</defs>
</svg>

<svg width="80" height="80" fill="none" xmlns="http://www.w3.org/2000/svg"><g clip-path="url(#clip0)"><path d="M45.566 56.323l8.498-7.982-3.374-.626c-1.628-.328-2.8-2.217-2.8-3.878v-7.401H32.11v7.401c0 1.661-1.171 3.55-2.8 3.878l-3.373.626 8.497 7.982a8.13 8.13 0 0011.132 0z" fill="#FFE7CF"/><path d="M44.068 36.436v11.223c0 1.661 1.172 3.55 2.8 3.877l2.908.833 4.288-4.028-3.374-.626c-1.629-.328-2.8-2.217-2.8-3.878v-7.401h-3.822z" fill="#F4D5BA"/><path d="M49.85 47.309L40 54.67l-9.85-7.362a2.077 2.077 0 00-1.844-.325l-16.548 4.993a4.903 4.903 0 00-3.417 3.869L4.695 77.19A2.405 2.405 0 007.065 80h65.87a2.405 2.405 0 002.37-2.81l-3.646-21.344a4.903 4.903 0 00-3.417-3.87l-16.548-4.992a2.078 2.078 0 00-1.844.325z" fill="#24D9DE"/><path d="M28.306 46.984l-2.847.859 6.283 8.792a1.815 1.815 0 002.187.615L40 54.671l-9.85-7.362a2.077 2.077 0 00-1.844-.325zM46.071 57.25a1.815 1.815 0 002.187-.615l6.283-8.792-.015-.005-2.832-.854a2.077 2.077 0 00-1.844.325L40 54.67l6.071 2.579z" fill="#D0D1D2"/><path d="M40 54.67l-4.774 2.03 2.79 3.244h3.967l2.791-3.245L40 54.671zm1.983 5.274h-3.966L34.354 80h11.292l-3.663-20.056z" fill="#F9644B"/><path d="M40 76.276S28.937 46.793 28.306 46.984l-16.548 4.993a4.903 4.903 0 00-3.417 3.869L4.695 77.19A2.405 2.405 0 007.065 80h65.87a2.405 2.405 0 002.37-2.81l-3.646-21.344a4.903 4.903 0 00-3.417-3.87l-16.548-4.992C51.062 46.794 40 76.276 40 76.276z" fill="#E1EFFB"/><path d="M75.305 77.19l-3.646-21.344a4.904 4.904 0 00-3.417-3.87l-16.548-4.992c-.172-.052-1.114 2.09-2.396 5.234L61.3 55.84a2.498 2.498 0 011.741 1.97L66.831 80h6.103a2.405 2.405 0 002.371-2.81z" fill="#CADDEA"/><path d="M57.592 63.33c-.667 0-1.207-.54-1.207-1.206V48.425a8.544 8.544 0 00-8.148-8.549 1.207 1.207 0 11.114-2.41 10.954 10.954 0 0110.447 10.959v13.699c0 .666-.54 1.206-1.206 1.206zM22.409 54.4a1.207 1.207 0 01-1.207-1.208v-4.767a10.96 10.96 0 0110.416-10.959 1.207 1.207 0 11.12 2.41 8.549 8.549 0 00-8.123 8.549v4.767c0 .667-.54 1.207-1.206 1.207z" fill="#44798C"/><path d="M57.578 67.955a5.037 5.037 0 100-10.075 5.037 5.037 0 000 10.075z" fill="#1785B8"/><path d="M57.578 65.136a2.22 2.22 0 100-4.438 2.22 2.22 0 000 4.438z" fill="#E1EFFB"/><path d="M26.4 72.803h-1.505a1.207 1.207 0 110-2.414H26.4a.656.656 0 00.652-.704l-.88-11.283a3.68 3.68 0 00-.282-1.159c-.557-1.315-1.878-2.161-3.37-2.161h-.028l-.199.001c-1.535.011-2.907.946-3.416 2.326-.117.319-.19.653-.216.993l-.88 11.283a.655.655 0 00.652.704h1.505a1.207 1.207 0 110 2.414h-1.505a3.076 3.076 0 01-2.252-.984 3.075 3.075 0 01-.806-2.322l.88-11.283c.043-.56.163-1.112.357-1.639.854-2.318 3.13-3.887 5.664-3.905l.2-.002h.044c2.464 0 4.656 1.423 5.592 3.634.258.608.415 1.252.467 1.912l.879 11.283a3.076 3.076 0 01-.807 2.322 3.076 3.076 0 01-2.251.984z" fill="#2C5871"/><path d="M26.076 25.548v-4.516H23.32a2.372 2.372 0 00-2.371 2.372v1.834a2.371 2.371 0 002.371 2.372h2.755v-2.062zm30.603-4.516h-2.755v6.578h2.755a2.371 2.371 0 002.371-2.372v-1.834a2.371 2.371 0 00-2.371-2.372z" fill="#F4D5BA"/><path d="M50.125 5.653C47.75 3.608 44.411 3.741 40 3.691c-4.41.05-7.75-.083-10.125 1.962-3.03 2.609-4.671 6.483-4.671 10.481v11.622c0 3.998 5.025 14.604 14.796 14.604 9.77 0 14.796-10.605 14.796-14.604V16.134c0-3.998-1.641-7.872-4.67-10.48z" fill="#FFE7CF"/><path d="M50.125 5.653c-.943-.812-2.04-1.28-3.294-1.553v23.657c0 3.413-3.663 11.64-10.814 13.974 1.226.4 2.553.629 3.983.629 9.771 0 14.796-10.605 14.796-14.604V16.134c0-3.998-1.641-7.872-4.67-10.48z" fill="#F4D5BA"/><path d="M48.901 0H31.1a8.294 8.294 0 00-8.295 8.294V21.91s2.284-.051 3.752 1.401a.486.486 0 00.825-.349v-11.14a3.666 3.666 0 013.666-3.667h3.331c.874 0 1.72.302 2.397.855l.327.268a4.578 4.578 0 005.796 0l.326-.268a3.787 3.787 0 012.397-.855h3.332a3.666 3.666 0 013.666 3.666v11.142c0 .43.52.65.825.348 1.467-1.452 3.751-1.4 3.751-1.4V8.293A8.294 8.294 0 0048.901 0z" fill="#FFB125"/><path d="M48.901 0h-7.965a8.293 8.293 0 018.291 8.167 3.666 3.666 0 013.392 3.654v11.142c0 .43.52.65.825.348 1.468-1.452 3.752-1.4 3.752-1.4V8.293A8.294 8.294 0 0048.9 0z" fill="#FF901D"/></g><defs><clipPath id="clip0"><path fill="#fff" d="M0 0h80v80H0z"/></clipPath></defs></svg>
